dist/uploads/catalog-sidebar-icons/1/i-catalog-9.svg

<svg width="38" height="25" viewBox="0 0 38 25" fill="none" xmlns="http://www.w3.org/2000/svg">
<path d="M20.3573 23.749C20.3573 23.929 20.4288 24.1016 20.556 24.2289C20.6833 24.3561 20.8559 24.4276 21.0359 24.4276H25.1072C25.2872 24.4276 25.4598 24.3561 25.587 24.2289C25.7143 24.1016 25.7858 23.929 25.7858 23.749V21.7134H20.3573V23.749Z" fill="#FFC800"/>
<path d="M2.71509 23.749C2.71509 23.929 2.78658 24.1016 2.91383 24.2289C3.04109 24.3561 3.21368 24.4276 3.39364 24.4276H7.46498C7.64495 24.4276 7.81754 24.3561 7.9448 24.2289C8.07205 24.1016 8.14354 23.929 8.14354 23.749V21.7134H2.71509V23.749Z" fill="#FFC800"/>
<path d="M11.5341 6.78589H6.10568C5.73092 6.78589 5.42712 7.08969 5.42712 7.46445V10.1787C5.42712 10.5534 5.73092 10.8572 6.10568 10.8572H11.5341C11.9089 10.8572 12.2127 10.5534 12.2127 10.1787V7.46445C12.2127 7.08969 11.9089 6.78589 11.5341 6.78589Z" fill="#FFC800"/>
<path d="M4.0722 10.1783V7.46412C4.0722 6.92423 4.28667 6.40645 4.66843 6.02469C5.0502 5.64292 5.56798 5.42845 6.10787 5.42845H11.5363C12.0762 5.42845 12.594 5.64292 12.9758 6.02469C13.3575 6.40645 13.572 6.92423 13.572 7.46412V10.1783C13.5697 10.41 13.5275 10.6396 13.4471 10.8569H15.054C14.9736 10.6396 14.9314 10.41 14.9291 10.1783V7.46412C14.9291 6.92423 15.1436 6.40645 15.5253 6.02469C15.9071 5.64292 16.4249 5.42845 16.9648 5.42845H22.3932C22.9331 5.42845 23.4509 5.64292 23.8327 6.02469C24.2144 6.40645 24.4289 6.92423 24.4289 7.46412V10.1783C24.4267 10.41 24.3844 10.6396 24.304 10.8569H25.786V2.03567C25.786 1.49578 25.5715 0.977996 25.1898 0.596234C24.808 0.214471 24.2902 0 23.7503 0H4.75076C4.21086 0 3.69308 0.214471 3.31132 0.596234C2.92956 0.977996 2.71509 1.49578 2.71509 2.03567V10.8569H4.19706C4.11669 10.6396 4.07445 10.41 4.0722 10.1783Z" fill="#FFC800"/>
<path d="M26.4637 12.2134H2.03567C1.49578 12.2134 0.977996 12.4279 0.596234 12.8096C0.214472 13.1914 0 13.7092 0 14.249V17.6418H28.4994V14.249C28.4994 13.7092 28.2849 13.1914 27.9031 12.8096C27.5214 12.4279 27.0036 12.2134 26.4637 12.2134Z" fill="#FFC800"/>
<path d="M22.3917 6.78589H16.9632C16.5885 6.78589 16.2847 7.08969 16.2847 7.46445V10.1787C16.2847 10.5534 16.5885 10.8572 16.9632 10.8572H22.3917C22.7664 10.8572 23.0702 10.5534 23.0702 10.1787V7.46445C23.0702 7.08969 22.7664 6.78589 22.3917 6.78589Z" fill="#FFC800"/>
<path d="M0 19.6783C0 19.8583 0.0714907 20.0309 0.198745 20.1581C0.325999 20.2854 0.498592 20.3569 0.678557 20.3569H27.8208C28.0008 20.3569 28.1734 20.2854 28.3006 20.1581C28.4279 20.0309 28.4994 19.8583 28.4994 19.6783V18.9998H0V19.6783Z" fill="#FFC800"/>
<path d="M32.5713 17.6418H37.9997V12.2134H32.5713V17.6418ZM33.2498 14.249H34.607V15.6062H33.2498V14.249Z" fill="#FFC800"/>
<path d="M32.5714 24.4282H37.9999V18.9998H32.5714V24.4282ZM33.25 21.0354H34.6071V22.3925H33.25V21.0354Z" fill="#FFC800"/>
<path d="M37.4001 1.35767H33.1699L32.661 5.42901H37.909L37.4001 1.35767Z" fill="#FFC800"/>
<path d="M34.6062 6.78589H35.9633V10.8572H34.6062V6.78589Z" fill="#FFC800"/>
</svg>

<svg width="38" height="25" fill="none" xmlns="http://www.w3.org/2000/svg"><path d="M20.357 23.749a.679.679 0 0 0 .679.679h4.071a.679.679 0 0 0 .679-.679v-2.036h-5.429v2.036zm-17.642 0a.679.679 0 0 0 .679.679h4.071a.679.679 0 0 0 .679-.679v-2.036H2.715v2.036zm8.819-16.963H6.106a.679.679 0 0 0-.679.678v2.715c0 .374.304.678.679.678h5.428a.679.679 0 0 0 .679-.678V7.464a.679.679 0 0 0-.679-.678z" fill="#FFC800"/><path d="M4.072 10.178V7.464a2.036 2.036 0 0 1 2.036-2.036h5.428a2.036 2.036 0 0 1 2.036 2.036v2.714a2.013 2.013 0 0 1-.125.679h1.607a2.013 2.013 0 0 1-.125-.679V7.464a2.036 2.036 0 0 1 2.036-2.036h5.428a2.036 2.036 0 0 1 2.036 2.036v2.714a2.01 2.01 0 0 1-.125.679h1.482V2.036A2.036 2.036 0 0 0 23.75 0h-19a2.036 2.036 0 0 0-2.035 2.036v8.82h1.482a2.013 2.013 0 0 1-.125-.678zm22.392 2.035H2.036A2.036 2.036 0 0 0 0 14.25v3.393h28.5V14.25a2.036 2.036 0 0 0-2.036-2.036z" fill="#FFC800"/><path d="M22.392 6.786h-5.429a.679.679 0 0 0-.678.678v2.715c0 .374.303.678.678.678h5.429a.679.679 0 0 0 .678-.678V7.464a.679.679 0 0 0-.678-.678zM0 19.678a.678.678 0 0 0 .679.679H27.82a.678.678 0 0 0 .678-.679V19H0v.678zm32.571-2.036H38v-5.429h-5.43v5.429zm.679-3.393h1.357v1.357H33.25V14.25zm-.679 10.179H38V19h-5.43v5.428zm.679-3.393h1.357v1.357H33.25v-1.357zM37.4 1.358h-4.23l-.509 4.071h5.248L37.4 1.358zm-2.794 5.428h1.357v4.071h-1.357V6.786z" fill="#FFC800"/></svg>
